src/assets/icons/hammer.svg

<svg width="14" height="14" viewBox="0 0 14 14" fill="none" xmlns="http://www.w3.org/2000/svg">
<g id="hammer">
<g clip-path="url(#clip0_295_4701)">
<path id="Vector" fill-rule="evenodd" clip-rule="evenodd" d="M6.56774 1.19814C6.49338 1.12378 6.37283 1.12378 6.29848 1.19813L4.63383 2.86279C4.55947 2.93714 4.55947 3.05769 4.63383 3.13204L10.868 9.36617C10.9423 9.44053 11.0629 9.44053 11.1372 9.36617L12.8019 7.70152C12.8762 7.62717 12.8762 7.50662 12.8019 7.43226L6.56774 1.19814ZM5.4907 0.390358C6.01118 -0.13012 6.85504 -0.130119 7.37551 0.390358L13.6096 6.62449C14.1301 7.14496 14.1301 7.98882 13.6096 8.5093L11.945 10.174C11.4245 10.6944 10.5807 10.6944 10.0602 10.174L8.2609 8.37467L3.18141 13.4542C2.45362 14.1819 1.27364 14.1819 0.545844 13.4542C-0.181948 12.7264 -0.181948 11.5464 0.545844 10.8186L5.62533 5.7391L3.82605 3.93982C3.30557 3.41934 3.30557 2.57549 3.82605 2.05501L5.4907 0.390358ZM6.43311 6.54688L1.35362 11.6264C1.07195 11.908 1.07195 12.3647 1.35362 12.6464C1.63529 12.928 2.09197 12.928 2.37364 12.6464L7.45312 7.56689L6.43311 6.54688Z" fill="black"/>
</g>
</g>
<defs>
<clipPath id="clip0_295_4701">
<rect width="14" height="14" fill="white"/>
</clipPath>
</defs>
</svg>

<svg xmlns="http://www.w3.org/2000/svg" fill="none" viewBox="0 0 14 14"><g clip-path="url(#a)"><path fill="#000" fill-rule="evenodd" d="M6.568 1.198a.19.19 0 0 0-.27 0L4.634 2.863a.19.19 0 0 0 0 .269l6.234 6.234a.19.19 0 0 0 .27 0l1.664-1.664a.19.19 0 0 0 0-.27zM5.49.39c.52-.52 1.364-.52 1.885 0l6.234 6.234c.52.521.52 1.365 0 1.885l-1.665 1.665c-.52.52-1.364.52-1.885 0l-1.8-1.8-5.079 5.08A1.864 1.864 0 0 1 .546 10.82l5.08-5.08-1.8-1.8a1.333 1.333 0 0 1 0-1.884zm.942 6.157-5.08 5.08a.721.721 0 1 0 1.02 1.02l5.08-5.08z" clip-rule="evenodd"/></g><defs><clipPath id="a"><path fill="#fff" d="M0 0h14v14H0z"/></clipPath></defs></svg>
